src/assets/svg/diy_products.svg

<svg width="117" height="32" viewBox="0 0 117 32" fill="none" xmlns="http://www.w3.org/2000/svg">
<g filter="url(#filter0_d_4449_1221)">
<path d="M41.4793 10.976L39.8473 22.952C39.8473 23.416 39.6553 23.8 39.2713 24.104C38.9033 24.408 38.4873 24.56 38.0233 24.56H25.1113L26.7193 11.888L26.0233 10.976H41.4793ZM31.3273 13.28L29.9593 22.256H35.4793L36.8713 13.28H31.3273ZM50.2263 10.976L48.1383 24.56H43.7703L45.3783 11.888L44.6823 10.976H50.2263ZM62.9737 11.432L62.5177 10.976H68.0377L61.3657 19.04L60.6697 24.56H56.0617L56.7577 19.04L52.8457 11.648L52.1497 10.976H56.9977L59.5177 16.04L62.9737 11.432ZM78.806 10.304L78.878 9.8L78.086 8.936H83.558L83.366 10.304H90.206L89.87 12.824H83.006L82.454 16.688H88.862L88.502 19.208H82.118L81.542 23.288H88.838L88.502 25.808H69.35L69.686 23.288H76.982L77.558 19.208H71.174L71.534 16.688H77.894L78.446 12.824H71.63L71.966 10.304H78.806ZM111.3 26.168H106.236L106.452 24.584L108.228 11.984H106.212L103.572 26.168H99.7561L102.732 9.68H112.212L110.292 23.456H110.988L111.804 22.544L111.3 26.168ZM95.6761 14.168H93.0361L93.3481 11.888H95.9881L96.3241 9.632L95.7241 8.936H100.116L99.6841 11.888H101.892L101.58 14.168H99.3721L97.6681 26.216H93.9721L95.6761 14.168ZM91.5001 25.376L93.5401 14.864H95.2441L93.2041 25.376H91.5001ZM98.2921 23.936L99.4921 14.816H101.196L99.9961 23.936H98.2921Z" fill="white"/>
</g>
<path fill-rule="evenodd" clip-rule="evenodd" d="M32 16C32 24.8366 24.8366 32 16 32C7.16344 32 0 24.8366 0 16C0 7.16344 7.16344 0 16 0C24.8366 0 32 16 32 16Z" fill="url(#paint0_linear_4449_1221)"/>
<defs>
<filter id="filter0_d_4449_1221" x="25.1113" y="8.93604" width="91.1006" height="21.2798" filterUnits="userSpaceOnUse" color-interpolation-filters="sRGB">
<feFlood flood-opacity="0" result="BackgroundImageFix"/>
<feColorMatrix in="SourceAlpha" type="matrix" values="0 0 0 0 0 0 0 0 0 0 0 0 0 0 0 0 0 0 127 0" result="hardAlpha"/>
<feOffset dx="4" dy="4"/>
<feColorMatrix type="matrix" values="0 0 0 0 0.654902 0 0 0 0 0.960784 0 0 0 0 0.133333 0 0 0 0.2 0"/>
<feBlend mode="normal" in2="BackgroundImageFix" result="effect1_dropShadow_4449_1221"/>
<feBlend mode="normal" in="SourceGraphic" in2="effect1_dropShadow_4449_1221" result="shape"/>
</filter>
<linearGradient id="paint0_linear_4449_1221" x1="-17.079" y1="28.5395" x2="8" y2="44.5395" gradientUnits="userSpaceOnUse">
<stop stop-color="#A7F522"/>
<stop offset="1" stop-color="#DCF8A6" stop-opacity="0.01"/>
</linearGradient>
</defs>
</svg>

<svg width="117" height="32" fill="none" xmlns="http://www.w3.org/2000/svg"><g filter="url(#prefix__a)"><path d="m41.48 10.976-1.633 11.976q0 .696-.576 1.152a1.9 1.9 0 0 1-1.248.456H25.111l1.608-12.672-.696-.912zM31.326 13.28l-1.368 8.976h5.52l1.392-8.976zm18.9-2.304L48.137 24.56H43.77l1.608-12.672-.696-.912zm12.747.456-.456-.456h5.52l-6.672 8.064-.696 5.52h-4.608l.696-5.52-3.912-7.392-.696-.672h4.848l2.52 5.064zm15.832-1.128.072-.504-.792-.864h5.472l-.192 1.368h6.84l-.336 2.52h-6.864l-.552 3.864h6.408l-.36 2.52h-6.384l-.576 4.08h7.296l-.336 2.52H69.35l.336-2.52h7.296l.576-4.08h-6.384l.36-2.52h6.36l.552-3.864H71.63l.336-2.52zM111.3 26.168h-5.064l.216-1.584 1.776-12.6h-2.016l-2.64 14.184h-3.816l2.976-16.488h9.48l-1.92 13.776h.696l.816-.912zm-15.624-12h-2.64l.312-2.28h2.64l.336-2.256-.6-.696h4.392l-.432 2.952h2.208l-.312 2.28h-2.208l-1.704 12.048h-3.696zM91.5 25.376l2.04-10.512h1.704l-2.04 10.512zm6.792-1.44 1.2-9.12h1.704l-1.2 9.12z" fill="#fff"/></g><path fill-rule="evenodd" clip-rule="evenodd" d="M32 16c0 8.837-7.163 16-16 16S0 24.837 0 16 7.163 0 16 0s16 16 16 16" fill="url(#prefix__b)"/><defs><linearGradient id="prefix__b" x1="-17.079" y1="28.54" x2="8" y2="44.539" gradientUnits="userSpaceOnUse"><stop stop-color="#A7F522"/><stop offset="1" stop-color="#DCF8A6" stop-opacity=".01"/></linearGradient><filter id="prefix__a" x="25.111" y="8.936" width="91.101" height="21.28" filterUnits="userSpaceOnUse" color-interpolation-filters="sRGB"><feFlood flood-opacity="0" result="BackgroundImageFix"/><feColorMatrix in="SourceAlpha" values="0 0 0 0 0 0 0 0 0 0 0 0 0 0 0 0 0 0 127 0" result="hardAlpha"/><feOffset dx="4" dy="4"/><feColorMatrix values="0 0 0 0 0.654902 0 0 0 0 0.960784 0 0 0 0 0.133333 0 0 0 0.2 0"/><feBlend in2="BackgroundImageFix" result="effect1_dropShadow_4449_1221"/><feBlend in="SourceGraphic" in2="effect1_dropShadow_4449_1221" result="shape"/></filter></defs></svg>
